src/assets/icons/ftic/two-under-one-roof.svg

<?xml version="1.0" encoding="UTF-8"?>
<svg width="38px" height="32px" viewBox="0 0 38 32" version="1.1" xmlns="http://www.w3.org/2000/svg" xmlns:xlink="http://www.w3.org/1999/xlink">
    <!-- Generator: Sketch 47.1 (45422) - http://www.bohemiancoding.com/sketch -->
    <title>Icon_2onder1kap</title>
    <desc>Created with Sketch.</desc>
    <defs></defs>
    <g id="DESIGNS" stroke="none" stroke-width="1" fill="none" fill-rule="evenodd">
        <g id="Search-Dropdown-2" transform="translate(-427.000000, -541.000000)" fill-rule="nonzero" fill="#333E48">
            <g id="Verbruik" transform="translate(50.000000, 282.000000)">
                <g id="2-onder-1-kap-woning" transform="translate(348.000000, 243.000000)">
                    <g id="Icon_2onder1kap" transform="translate(29.000000, 16.000000)">
                        <path d="M10.6785714,5.72839506 L10.6785714,3.95061728 L5.53703704,3.95061728 L5.53703704,5.80740741 L5.53703704,10.745679 L0.0395502646,15.7234568 L2.68941799,18.5679012 L3.55952381,18.5679012 L3.55952381,32 L18.984127,32 L18.984127,0.158024691 L10.6785714,5.72839506 Z M13.8425926,29.5901235 L8.0287037,29.5901235 L8.0287037,21.6098765 L13.8425926,21.6098765 L13.8425926,29.5901235 Z" id="Shape"></path>
                        <path d="M32.0357143,10.745679 L32.0357143,5.80740741 L32.0357143,3.95061728 L26.8941799,3.95061728 L26.8941799,5.72839506 L18.984127,0.158024691 L18.984127,32 L33.6177249,32 L33.6177249,18.5679012 L35.278836,18.5679012 L37.7309524,15.7234568 L32.0357143,10.745679 Z M29.9395503,29.5901235 L24.1256614,29.5901235 L24.1256614,21.6098765 L29.9395503,21.6098765 L29.9395503,29.5901235 Z" id="Shape" opacity="0.7"></path>
                    </g>
                </g>
            </g>
        </g>
    </g>
</svg>

<svg xmlns="http://www.w3.org/2000/svg" viewBox="0 0 38 32"><path d="M10.679 5.728V3.951H5.537v6.795L.04 15.723l2.65 2.845h.87V32h15.424V.158l-8.305 5.57zm3.164 23.862H8.029v-7.98h5.814v7.98z"/><path d="M32.036 10.746V3.95h-5.142v1.777l-7.91-5.57V32h14.634V18.568h1.66l2.453-2.845-5.695-4.977zM29.94 29.59h-5.814v-7.98h5.814v7.98z" opacity=".7"/></svg>
